src/assets/images/bg-intro-mb/cadre-nom.svg

<svg width="964" height="404" fill="none" xmlns="http://www.w3.org/2000/svg"><path d="M880 403 962 2H79L1 403h879Z" fill="#141015"/><path d="M49 163 2 402h159" stroke="url(#a)" stroke-width="3"/><path d="M915 241 962 2H803" stroke="url(#b)" stroke-width="3"/><path d="M160 3 82 401M239 3l-78 398M320 3l-78 398M399 3l-78 398M480 3l-78 398M559 3l-78 398M640 3l-78 398M719 3l-78 398M800 3l-78 398M879 3l-78 398M62 82h883M50 163h883M29 244h883M8 323h883" stroke="#8F00FF" stroke-opacity=".3"/><defs><linearGradient id="a" x1="2" y1="-1149.87" x2="161" y2="-1149.87" gradientUnits="userSpaceOnUse"><stop stop-color="#0FF"/><stop offset=".5" stop-color="#8F00FF"/><stop offset="1" stop-color="#FF00D4"/></linearGradient><linearGradient id="b" x1="962" y1="1553.87" x2="803" y2="1553.87" gradientUnits="userSpaceOnUse"><stop stop-color="#0FF"/><stop offset=".5" stop-color="#8F00FF"/><stop offset="1" stop-color="#FF00D4"/></linearGradient></defs></svg>

<svg width="964" height="404" viewBox="0 0 964 404" fill="none" xmlns="http://www.w3.org/2000/svg">
<path d="M880 403L962 2H79L1 403H880Z" fill="#141015"/>
<path d="M49 163L2 402H161" stroke="url(#paint0_linear_99_22)" stroke-width="3"/>
<path d="M915 241L962 2L803 2.00001" stroke="url(#paint1_linear_99_22)" stroke-width="3"/>
<path d="M160 3L82 401" stroke="#8F00FF" stroke-opacity="0.5" stroke-width="2"/>
<path d="M239 3L161 401" stroke="#8F00FF" stroke-opacity="0.5" stroke-width="2"/>
<path d="M320 3L242 401" stroke="#8F00FF" stroke-opacity="0.5" stroke-width="2"/>
<path d="M399 3L321 401" stroke="#8F00FF" stroke-opacity="0.5" stroke-width="2"/>
<path d="M480 3L402 401" stroke="#8F00FF" stroke-opacity="0.5" stroke-width="2"/>
<path d="M559 3L481 401" stroke="#8F00FF" stroke-opacity="0.5" stroke-width="2"/>
<path d="M640 3L562 401" stroke="#8F00FF" stroke-opacity="0.5" stroke-width="2"/>
<path d="M719 3L641 401" stroke="#8F00FF" stroke-opacity="0.5" stroke-width="2"/>
<path d="M800 3L722 401" stroke="#8F00FF" stroke-opacity="0.5" stroke-width="2"/>
<path d="M879 3L801 401" stroke="#8F00FF" stroke-opacity="0.5" stroke-width="2"/>
<path d="M62 82H945" stroke="#8F00FF" stroke-opacity="0.5" stroke-width="2"/>
<path d="M50 163H933" stroke="#8F00FF" stroke-opacity="0.5" stroke-width="2"/>
<path d="M36 244H914" stroke="#8F00FF" stroke-opacity="0.5" stroke-width="2"/>
<path d="M20 323H898" stroke="#8F00FF" stroke-opacity="0.5" stroke-width="2"/>
<defs>
<linearGradient id="paint0_linear_99_22" x1="2" y1="-1149.87" x2="161" y2="-1149.87" gradientUnits="userSpaceOnUse">
<stop stop-color="#00FFFF"/>
<stop offset="0.5" stop-color="#8F00FF"/>
<stop offset="1" stop-color="#FF00D4"/>
</linearGradient>
<linearGradient id="paint1_linear_99_22" x1="962" y1="1553.87" x2="803" y2="1553.87" gradientUnits="userSpaceOnUse">
<stop stop-color="#00FFFF"/>
<stop offset="0.5" stop-color="#8F00FF"/>
<stop offset="1" stop-color="#FF00D4"/>
</linearGradient>
</defs>
</svg>
